icon_installer/data/icons/scalable/actions/show-chat-none-symbolic.svg

<?xml version="1.0" encoding="UTF-8"?>
<svg height="16px" viewBox="0 0 16 16" width="16px" xmlns="http://www.w3.org/2000/svg">
    <g fill="#2e3436">
        <path d="m 2.5 2 c -0.449219 0 -0.863281 0.125 -1.226562 0.332031 l 10.667968 10.667969 h 1.558594 c 1.386719 0 2.5 -1.113281 2.5 -2.5 v -6 c 0.003906 -1.382812 -1.117188 -2.5 -2.5 -2.5 z m -2.253906 1.429688 c -0.152344 0.324218 -0.246094 0.683593 -0.246094 1.070312 v 6 c 0 1.183594 1.402344 2.5 2.5 2.5 h 1.5 v 3 l 3.125 -3 h 2.691406 z m 0 0"/>
        <path d="m 1.53125 0.46875 l -1.0625 1.0625 l 14 14 l 1.0625 -1.0625 z m 0 0"/>
    </g>
</svg>

<svg xmlns="http://www.w3.org/2000/svg" width="16" height="16"><g fill="#2e3436"><path d="M2.5 2c-.45 0-.863.125-1.227.332L11.941 13H13.5c1.387 0 2.5-1.113 2.5-2.5v-6A2.495 2.495 0 0 0 13.5 2zM.246 3.43A2.504 2.504 0 0 0 0 4.5v6C0 11.684 1.402 13 2.5 13H4v3l3.125-3h2.691zm0 0"/><path d="M1.531.469.47 1.53l14 14 1.062-1.062zm0 0"/></g></svg>
